X: 11170
T: Duncan The Gauger
R: jig
M: 6/8
K: Aminor
ede Aee|deA ede|Bdd GBB|BdG Bde|
ede Aee|deA ede|Bdd GBB|Bde A3:|
AAA Aee|deA ede|GGG GBB|GBG Bde|
AAA Aee|deA ede|Bdd GBB|Bde A3:|
e2 a gee|deA ede|e2 a gee|BdG Bde|
e2 a gee|deA ede|Bdd GBB|Bde A3:|
AAA aga|geg aga|GGG Bgg|BdG Bde|
AAA aga|geg aga|Bdd GBB|Bde A3:|

